(000 OVER)
(T1  D=0.1575 CR=0. - ZMIN=-0.125 - FLAT END MILL)
G90 G94 G91.1 G40 G49 G17
G20
G28 G91 Z0.
G90

(000 OVER)
M5
M9
T1 M6
S24000 M3
G54
M8
G0 X4.229 Y4.9307
G43 Z0.6 H1
Z0.2
G1 Z0.08 F11.
Z-0.1171
X4.2292 Y4.9308 Z-0.1192 F55.
X4.2299 Y4.9312 Z-0.1211
X4.231 Y4.9318 Z-0.1227
X4.2324 Y4.9326 Z-0.1239
X4.2341 Y4.9335 Z-0.1247
X4.2359 Y4.9345 Z-0.125
X4.2428 Y4.9383
X4.2444 Y4.9395
X4.2457 Y4.9411
X4.2466 Y4.943
X4.3483 Y5.2912
G2 X4.386 Y5.3382 I0.0756 J-0.0221
G3 X4.3671 Y5.3727 I-0.0095 J0.0173
G2 X4.3072 Y5.3662 I-0.0378 J0.0691
G1 X3.6107 Y5.5697
G2 X3.5637 Y5.6074 I0.0221 J0.0756
G3 X3.537 Y5.6152 I-0.0173 J-0.0095
X3.5292 Y5.5885 I0.0095 J-0.0173
G2 X3.5357 Y5.5286 I-0.0691 J-0.0378
G1 X3.3323 Y4.8321
G2 X3.2945 Y4.7851 I-0.0756 J0.0221
G3 X3.2867 Y4.7584 I0.0095 J-0.0173
X3.3134 Y4.7506 I0.0173 J0.0095
G2 X3.3734 Y4.7571 I0.0378 J-0.0691
G1 X4.0699 Y4.5537
G2 X4.1168 Y4.5159 I-0.0221 J-0.0756
G3 X4.1436 Y4.5081 I0.0173 J0.0095
X4.1514 Y4.5348 I-0.0095 J0.0173
G2 X4.1448 Y4.5947 I0.0691 J0.0378
G1 X4.2466 Y4.943
X4.2746 Y5.039
X4.2749 Y5.041
X4.2747 Y5.043
X4.2739 Y5.045
X4.2702 Y5.0519
X4.2692 Y5.0537 Z-0.1247
X4.2683 Y5.0553 Z-0.1239
X4.2675 Y5.0568 Z-0.1227
X4.2669 Y5.0578 Z-0.1211
X4.2665 Y5.0585 Z-0.1192
X4.2664 Y5.0588 Z-0.1171
G0 Z0.6

M9
G28 G91 Z0.
G90
M30
