(004 OVER)
(T1  D=0.1575 CR=0. - ZMIN=-0.125 - FLAT END MILL)
G90 G94 G91.1 G40 G49 G17
G20
G28 G91 Z0.
G90

(004 OVER)
M5
M9
T1 M6
S24000 M3
G54
M8
G0 X4.2328 Y4.9296
G43 Z0.6 H1
Z0.2
G1 Z0.08 F11.
Z-0.1171
X4.233 Y4.9297 Z-0.1192 F55.
X4.2337 Y4.9301 Z-0.1211
X4.2348 Y4.9307 Z-0.1227
X4.2363 Y4.9315 Z-0.1239
X4.2379 Y4.9324 Z-0.1247
X4.2397 Y4.9334 Z-0.125
X4.2466 Y4.9372
X4.2483 Y4.9384
X4.2496 Y4.94
X4.2504 Y4.9419
X4.3521 Y5.2901
G2 X4.388 Y5.3347 I0.0717 J-0.021
G3 X4.3652 Y5.3763 I-0.0114 J0.0208
G2 X4.3083 Y5.3701 I-0.0359 J0.0655
G1 X3.6118 Y5.5735
G2 X3.5672 Y5.6093 I0.021 J0.0717
G3 X3.5351 Y5.6187 I-0.0208 J-0.0114
X3.5257 Y5.5866 I0.0114 J-0.0208
G2 X3.5319 Y5.5297 I-0.0655 J-0.0359
G1 X3.3284 Y4.8332
G2 X3.2926 Y4.7886 I-0.0717 J0.021
G3 X3.2832 Y4.7565 I0.0114 J-0.0208
X3.3154 Y4.7471 I0.0208 J0.0114
G2 X3.3722 Y4.7533 I0.0359 J-0.0655
G1 X4.0687 Y4.5498
G2 X4.1133 Y4.514 I-0.021 J-0.0717
G3 X4.1455 Y4.5046 I0.0208 J0.0114
X4.1549 Y4.5367 I-0.0114 J0.0208
G2 X4.1487 Y4.5936 I0.0655 J0.0359
G1 X4.2504 Y4.9419
X4.2784 Y5.0379
X4.2788 Y5.0399
X4.2785 Y5.0419
X4.2778 Y5.0438
X4.274 Y5.0507
X4.273 Y5.0525 Z-0.1247
X4.2721 Y5.0542 Z-0.1239
X4.2713 Y5.0556 Z-0.1227
X4.2707 Y5.0567 Z-0.1211
X4.2703 Y5.0574 Z-0.1192
X4.2702 Y5.0577 Z-0.1171
G0 Z0.6

M9
G28 G91 Z0.
G90
M30
