(008 OVER)
(T1  D=0.1575 CR=0. - ZMIN=-0.125 - FLAT END MILL)
G90 G94 G91.1 G40 G49 G17
G20
G28 G91 Z0.
G90

(008 OVER)
M5
M9
T1 M6
S24000 M3
G54
M8
G0 X4.1253 Y4.3382
G43 Z0.6 H1
Z0.2
G1 Z0.08 F11.
Z-0.1171
X4.1251 Y4.3384 Z-0.1192 F55.
X4.1246 Y4.3391 Z-0.1211
X4.1239 Y4.3401 Z-0.1227
X4.1229 Y4.3414 Z-0.1239
X4.1217 Y4.3429 Z-0.1247
X4.1205 Y4.3445 Z-0.125
X4.1158 Y4.3508
X4.1143 Y4.3522
X4.1125 Y4.3533
X4.1105 Y4.3538
G2 X4.0018 Y4.4136 I0.0236 J0.1716
G1 X3.3553 Y4.6025
G2 X3.1923 Y4.9001 I-0.0514 J0.1654
G1 X3.3811 Y5.5466
G2 X3.4633 Y5.7498 I0.1654 J0.0514
X3.6788 Y5.7097 I0.0832 J-0.1519
G1 X4.3252 Y5.5209
G2 X4.4883 Y5.2232 I0.0514 J-0.1654
G1 X4.2995 Y4.5767
G2 X4.2173 Y4.3735 I-0.1654 J-0.0514
X4.0207 Y4.3945 I-0.0832 J0.1519
G1 X4.019 Y4.3956
X4.017 Y4.3963
X4.015 Y4.3964
X4.0071 Y4.3958
X4.0051 Y4.3957 Z-0.1247
X4.0032 Y4.3955 Z-0.1239
X4.0016 Y4.3954 Z-0.1227
X4.0003 Y4.3953 Z-0.1211
X3.9996 Z-0.1192
X3.9993 Z-0.1171
G0 Z0.6

M9
G28 G91 Z0.
G90
M30
