(Job 4mm)
(T1  D=4 CR=0 - ZMIN=-4.175 - flat end mill)
G90 G94
G17
G21
G28 G91 Z0
G90

(Drill1)
T1
S24000 M3
G54
M8
G0 X22.664 Y171.843
Z15
Z5
Z2.825
G1 Z-4.175 F279.4
G0 Z5
X221.855
Z2.825
G1 Z-4.175 F279.4
G0 Z5
Z15

(2D Contour1)
Z15.24
X21.477 Y188.23
Z6.08
G1 Z3.032 F279.4
Z-0.578
X21.482 Y188.225 Z-0.63 F1397
X21.496 Y188.211 Z-0.678
X21.518 Y188.188 Z-0.719
X21.548 Y188.159 Z-0.751
X21.582 Y188.125 Z-0.771
X21.618 Y188.088 Z-0.778
X21.76 Y187.947
X21.801 Y187.915
X21.849 Y187.895
X21.901 Y187.888
X222.618 F2540
G2 X228.618 Y181.888 I0 J-6
G1 Y159.291
X240.519
G2 X246.519 Y153.291 I0 J-6
G1 Y4
G2 X240.519 Y-2 I-6 J0
G1 X4
G2 X-2 Y4 I0 J6
G1 Y153.291
G2 X4 Y159.291 I6 J0
G1 X15.901
Y181.888
G2 X21.901 Y187.888 I6 J0
G1 X24.441
X24.493 Y187.895 F1397
X24.541 Y187.915
X24.583 Y187.947
X24.724 Y188.088
X24.761 Y188.125 Z-0.771
X24.795 Y188.159 Z-0.751
X24.824 Y188.188 Z-0.719
X24.847 Y188.211 Z-0.678
X24.861 Y188.225 Z-0.63
X24.866 Y188.23 Z-0.578
X21.477 F2540
Z-2.356 F279.4
X21.482 Y188.225 Z-2.408 F1397
X21.496 Y188.211 Z-2.456
X21.518 Y188.188 Z-2.497
X21.548 Y188.159 Z-2.529
X21.582 Y188.125 Z-2.549
X21.618 Y188.088 Z-2.556
X21.76 Y187.947
X21.801 Y187.915
X21.849 Y187.895
X21.901 Y187.888
X222.618 F2540
G2 X228.618 Y181.888 I0 J-6
G1 Y159.291
X240.519
G2 X246.519 Y153.291 I0 J-6
G1 Y4
G2 X240.519 Y-2 I-6 J0
G1 X4
G2 X-2 Y4 I0 J6
G1 Y153.291
G2 X4 Y159.291 I6 J0
G1 X15.901
Y181.888
G2 X21.901 Y187.888 I6 J0
G1 X24.441
X24.493 Y187.895 F1397
X24.541 Y187.915
X24.583 Y187.947
X24.724 Y188.088
X24.761 Y188.125 Z-2.549
X24.795 Y188.159 Z-2.529
X24.824 Y188.188 Z-2.497
X24.847 Y188.211 Z-2.456
X24.861 Y188.225 Z-2.408
X24.866 Y188.23 Z-2.356
X21.477 F2540
Z-3.975 F279.4
X21.482 Y188.225 Z-4.027 F1397
X21.496 Y188.211 Z-4.075
X21.518 Y188.188 Z-4.116
X21.548 Y188.159 Z-4.148
X21.582 Y188.125 Z-4.168
X21.618 Y188.088 Z-4.175
X21.76 Y187.947
X21.801 Y187.915
X21.849 Y187.895
X21.901 Y187.888
X222.618 F2540
G2 X228.618 Y181.888 I0 J-6
G1 Y159.291
X240.519
G2 X246.519 Y153.291 I0 J-6
G1 Y4
G2 X240.519 Y-2 I-6 J0
G1 X4
G2 X-2 Y4 I0 J6
G1 Y153.291
G2 X4 Y159.291 I6 J0
G1 X15.901
Y181.888
G2 X21.901 Y187.888 I6 J0
G1 X24.441
X24.493 Y187.895 F1397
X24.541 Y187.915
X24.583 Y187.947
X24.724 Y188.088
X24.761 Y188.125 Z-4.168
X24.795 Y188.159 Z-4.148
X24.824 Y188.188 Z-4.116
X24.847 Y188.211 Z-4.075
X24.861 Y188.225 Z-4.027
X24.866 Y188.23 Z-3.975
G0 Z15.24
M9
G28 G91 Z0
G90
G28 G91 X0 Y0
G90
M5
M30
